server/website/public/icons/base/maps.svg

<svg width="48" height="48" viewBox="0 0 48 48" fill="none" xmlns="http://www.w3.org/2000/svg">
<path d="M24 0C14.6014 0 7 7.512 7 16.8C7 29.4 24 48 24 48C24 48 41 29.4 41 16.8C41 7.512 33.3986 0 24 0ZM24 22.8C22.3898 22.8 20.8455 22.1679 19.7069 21.0426C18.5682 19.9174 17.9286 18.3913 17.9286 16.8C17.9286 15.2087 18.5682 13.6826 19.7069 12.5574C20.8455 11.4321 22.3898 10.8 24 10.8C25.6102 10.8 27.1545 11.4321 28.2931 12.5574C29.4318 13.6826 30.0714 15.2087 30.0714 16.8C30.0714 18.3913 29.4318 19.9174 28.2931 21.0426C27.1545 22.1679 25.6102 22.8 24 22.8Z" fill="black"/>
</svg>

<svg width="48" height="48" fill="none" xmlns="http://www.w3.org/2000/svg"><path d="M24 0C14.601 0 7 7.512 7 16.8 7 29.4 24 48 24 48s17-18.6 17-31.2C41 7.512 33.399 0 24 0zm0 22.8a6.108 6.108 0 01-4.293-1.757 5.964 5.964 0 01-1.778-4.243c0-1.591.64-3.117 1.778-4.243A6.108 6.108 0 0124 10.8c1.61 0 3.154.632 4.293 1.757a5.964 5.964 0 011.778 4.243c0 1.591-.64 3.117-1.778 4.243A6.108 6.108 0 0124 22.8z" fill="#000"/></svg>
